src/assets/icons/ChallengeDie_Effect.svg

<svg xmlns="http://www.w3.org/2000/svg" width="317.28mm" height="317.28mm" viewBox="0 0 1199 1199"><path fill="none" stroke="#000" d="M0 0h1199v1199H0zm472.09 27.03c-4.27 2.2-2.29 5.34 0 5.34 2.57.01 5.45-4.09 0-5.34ZM605 43c-5.2 4.82-9.4 12.96-13.34 19l-24.71 39c-30.14 48.14-57.8 98.22-83.2 149-103.07 206.15-164.04 413.71-199.33 641-9.23 59.45-16.27 119.18-22.25 179l-5 56c-.83 8.71-.17 17.71-3.17 26 5.7-2.83 6.4-5.91 10.2-10.58l17.51-22.14 36.83-44.31 22.9-27.55 80.15-89.25 13.28-13.34 6.43-7.41 31.98-32 12.68-11.5 13.46-13.47 6.58-5.5c25.58-23.95 52-47.18 79.98-68.37l49.98-35.32c22.2-14.27 42.16-25.39 69.04-27.35l7-.73 7 .74c52.93 4.23 95.44 51.7 123.33 93.08 30.52 45.29 54.16 94.74 75.25 145l21 53c2.21 5.88 7.39 21.76 10.42 26l-12.58-71-26.81-147c-38.34-204.54-83.94-384.67-173.39-574-24.94-52.78-54.9-106.38-85.64-156l-28.91-45zM41 50.33c-19.23 4.76-15.8 30.79 1 32.47 17.77 1.79 23.73-23.69 8-31.23-3.19-1.53-5.6-1.54-9-1.24Zm181.09.58c-4.84 2.8-.73 6.11 1.6 4.92 2.09-1.07 2.43-4.06-1.6-4.92Zm524.08 17c-3.79 2.76-.63 6.15 1.28 4.92 1.67-1.07 1.92-4.07-1.28-4.92ZM1065 76.33c-20.17 5.02-13.06 33.19 5 30.19 14.72-2.45 16.12-19.08 8.79-26.3-3.96-3.9-8.55-4.43-13.79-3.89Zm-671.94 9.29c-8 4.83-2.39 13.8 3.88 11.6 5.71-2 5.8-12.96-3.88-11.6Zm458.98 20.85c-8.8 3.7-4.56 14.72 2.94 13.06 6.79-1.51 7.35-13.55-2.94-13.06Zm-703.02 18.17c-9.81 5.37-2.41 14.74 3.94 12.58 7.09-2.42 6.03-13.66-3.94-12.58ZM606 192c2.95 4.01 2.87 12.87 3.58 18l5.57 46 17.7 144 5.2 43c.41 3.7 1.86 18.39 3.26 20.78 2.34 3.99 15.94 7.22 20.69 8.91l41 13.98c5.16 1.74 16.22 5.07 20 8.33l-46 24.31L648 534l6.28 54c.97 7.83 3.73 22.93 1.72 30-4.98-4.35-14.62-22.25-18.44-29l-5.88-9.42L607 537l-33.6 57-18.4 29c-1.52-5.78.37-13.01.93-19l5.22-46 1.83-17c.27-2.08.88-4.89 0-6.79-1.77-3.3-15.08-8.93-18.98-10.99l-35-17.97c-5.74-2.87-15.71-6.97-20-11.25l58-20c4.18-1.39 20.13-5.99 22.41-8.51 2.45-2.71 3.32-16.24 3.87-20.49l6.87-55 16.7-132 5-40c.89-7.48 1.7-19.28 4.15-26Zm-356 2.6c-4.59.44-8.28 1.61-11.15 5.5-6.62 9.02-.13 21.85 11.15 21.87 13.69.02 16.84-14.33 11.3-21.87-2.81-3.83-6.8-5.07-11.3-5.5Zm144.26 3.14c-3.88 3.07-.79 6.25 1.48 5.52 2.04-.66 3.5-5.27-1.48-5.52ZM848 232c-1.2-3.39-1.46-3.47-5-3 1.73 2.9 1.63 2.82 5 3Zm249 13.54c-10.18 3.69-5.43 14.61 1.99 12.99 7.4-1.62 8.04-12.73-1.99-12.99ZM98 275l-5-1v4l5-1zm189 50c-2.9 1.73-2.82 1.63-3 5 3.39-1.2 3.47-1.46 3-5Zm587.3 19.74c-3.96 3.16.1 6.26 2.39 5.09 2.03-1.03 2.61-4.86-2.39-5.09Zm-692.29 23.84c-10.14 2.72-5.97 14.7 1.97 12.95 6.34-1.4 7.61-12.25-1.97-12.95Zm-90.95 65.45c-4.19 2.2-2.28 5.34 0 5.34 2.64.01 5.17-4.1 0-5.34Zm845.94-.17c-4.69 1.61-2.19 5.51 0 5.51s4.69-3.9 0-5.51Zm189.06 14.78c-7.88 4.29-5.14 12.69 0 13.89 9.33 2.16 11.71-15.17 0-13.89ZM268 496h-4l1 5h2zm750 32.33c-5.6 1.39-9.25 3.87-10.99 9.67-2.79 9.27 5.27 19.16 14.99 17.66 16.97-2.62 16.3-29.13-4-27.33Zm-73.04 20.7c-5.09 1.24-2.41 5.35 0 5.34 2.18 0 4.23-3.1 0-5.34ZM111 564c4.49-.78 5.11-2.57 1-5zm111.08 46.74c-2.97 1.13-3.54 3.77-.78 5.1 2.91 1.4 6.69-3.39.78-5.1Zm733.93 79.9c-9.62 3.21-4.91 13.37 1.97 12 6.02-1.19 7.58-11.18-1.97-12ZM1067 708h-2l-1 5c3.39-1.2 3.47-1.46 3-5Zm-928 1.39c-17.12 5.57-10.67 30.51 8 26.22 10.21-2.35 12.89-15.71 5.47-23.08-3.9-3.87-8.4-3.83-13.47-3.14Zm582.04 76.08c-8.8 3.7-4.56 14.72 2.94 13.06 6.64-1.47 7.7-13.57-2.94-13.06ZM88.28 797.65c-3.91 3.36.15 5.62 2.29 4.72 2.02-.84 3.01-5.21-2.29-4.72Zm1053.71 10.26c-10.82 1.22-6.98 13.52.97 11.76 5.39-1.2 7.31-9.36-.97-11.76Zm-56.99 4.48c-4.54.73-8.41 1.88-11.35 5.71-7.43 9.68-1.22 25.81 13.35 24.8 19.51-1.34 18.67-30.26-2-30.51Zm-110.91 34.52c-4.84 2.8-.73 6.11 1.6 4.92 2.09-1.07 2.43-4.06-1.6-4.92ZM166 859c5.13.69 5.79-2.32 1-4zm476.27 15.74c-3.93 3.03-.81 6.05 1.54 5.44 2.41-.63 3.72-5.18-1.54-5.44ZM562 906.34c-17.2 5.02-14.17 28.39 2 29.87 16.86 1.55 22.57-19.08 10.96-27.56-4.06-2.97-8.22-2.86-12.96-2.31Zm-339.17 41.83c-5.03.99-3.4 5.02-.79 5.38s5.16-3 .79-5.38Zm537.23 1.86c-4.19 2.2-2.28 5.34 0 5.34 2.64.01 5.17-4.1 0-5.34Zm321.05 32.57c-8.29 5.26-1.75 14.97 5.68 11.66 4.1-1.82 4.84-7.55 1.56-10.52-2.21-2-4.62-1.65-7.24-1.14Zm53.98 17.31c-4.84 2.8-.73 6.11 1.6 4.92 2.09-1.07 2.43-4.06-1.6-4.92Zm-329.91 5.83c-4.36 3.13-.81 6.16 1.57 5.38 2.13-.71 3.45-5.14-1.57-5.38Zm-692.17 1.94c-10.24 1.83-7.33 13.11 0 13.11 8 0 9.95-11.33 0-13.11Zm412.25 12.06c-3.87 3-.87 6 1.5 5.3 2.13-.64 3.39-5.05-1.5-5.3Zm109.74 22.6c-19.48 4.73-12.53 29.61 4 27.43 16.81-2.2 16.03-28.75-4-27.43Zm396.3 1.4c-3.96 3.12.1 5.91 2.27 4.86 1.94-.94 2.66-4.63-2.27-4.86Zm-284.39 37.43c-5.16.99-3.46 5.03-.87 5.38 2.52.35 5.45-2.99.87-5.38Zm-282.82 13.86c-4.66 2.4-1.9 5.86.74 5.53 2.48-.3 4.4-4.35-.74-5.53ZM1099 1115c-2.9 1.73-2.82 1.63-3 5 3.39-1.2 3.47-1.46 3-5Zm-243.94 2.81c-6.23 3.6-4.43 10.69.96 11.86 7.64 1.65 10.55-8.31 4.83-11.86-2.11-1.02-3.61-.61-5.79 0Zm-777.02 25.66c-9.36 3.93-2.92 13.37 2.92 11.69 5.83-1.69 7.37-12.18-2.92-11.69Z"/></svg>

<?xml version="1.0" encoding="UTF-8" standalone="no"?>
<!DOCTYPE svg PUBLIC "-//W3C//DTD SVG 20010904//EN"
              "http://www.w3.org/TR/2001/REC-SVG-20010904/DTD/svg10.dtd">

<svg xmlns="http://www.w3.org/2000/svg"
     width="317.28mm" height="317.28mm"
     viewBox="0 0 1199 1199">
  <path id="Selection"
        fill="none" stroke="black" stroke-width="1"
        d="M 0.00,0.00
           C 0.00,0.00 1199.00,0.00 1199.00,0.00
             1199.00,0.00 1199.00,1199.00 1199.00,1199.00
             1199.00,1199.00 0.00,1199.00 0.00,1199.00
             0.00,1199.00 0.00,0.00 0.00,0.00 Z
           M 472.09,27.03
           C 467.82,29.23 469.80,32.37 472.09,32.37
             474.66,32.38 477.54,28.28 472.09,27.03 Z
           M 605.00,43.00
           C 599.80,47.82 595.60,55.96 591.66,62.00
             591.66,62.00 566.95,101.00 566.95,101.00
             536.81,149.14 509.15,199.22 483.75,250.00
             380.68,456.15 319.71,663.71 284.42,891.00
             275.19,950.45 268.15,1010.18 262.17,1070.00
             262.17,1070.00 257.17,1126.00 257.17,1126.00
             256.34,1134.71 257.00,1143.71 254.00,1152.00
             259.70,1149.17 260.40,1146.09 264.20,1141.42
             264.20,1141.42 281.71,1119.28 281.71,1119.28
             281.71,1119.28 318.54,1074.97 318.54,1074.97
             318.54,1074.97 341.44,1047.42 341.44,1047.42
             341.44,1047.42 421.59,958.17 421.59,958.17
             421.59,958.17 434.87,944.83 434.87,944.83
             434.87,944.83 441.30,937.42 441.30,937.42
             441.30,937.42 473.28,905.42 473.28,905.42
             473.28,905.42 485.96,893.92 485.96,893.92
             485.96,893.92 499.42,880.45 499.42,880.45
             499.42,880.45 506.00,874.95 506.00,874.95
             531.58,851.00 558.00,827.77 585.98,806.58
             585.98,806.58 635.96,771.26 635.96,771.26
             658.16,756.99 678.12,745.87 705.00,743.91
             705.00,743.91 712.00,743.18 712.00,743.18
             712.00,743.18 719.00,743.92 719.00,743.92
             771.93,748.15 814.44,795.62 842.33,837.00
             872.85,882.29 896.49,931.74 917.58,982.00
             917.58,982.00 938.58,1035.00 938.58,1035.00
             940.79,1040.88 945.97,1056.76 949.00,1061.00
             949.00,1061.00 936.42,990.00 936.42,990.00
             936.42,990.00 909.61,843.00 909.61,843.00
             871.27,638.46 825.67,458.33 736.22,269.00
             711.28,216.22 681.32,162.62 650.58,113.00
             650.58,113.00 621.67,68.00 621.67,68.00
             621.67,68.00 605.00,43.00 605.00,43.00 Z
           M 41.00,50.33
           C 21.77,55.09 25.20,81.12 42.00,82.80
             59.77,84.59 65.73,59.11 50.00,51.57
             46.81,50.04 44.40,50.03 41.00,50.33 Z
           M 222.09,50.91
           C 217.25,53.71 221.36,57.02 223.69,55.83
             225.78,54.76 226.12,51.77 222.09,50.91 Z
           M 746.17,67.91
           C 742.38,70.67 745.54,74.06 747.45,72.83
             749.12,71.76 749.37,68.76 746.17,67.91 Z
           M 1065.00,76.33
           C 1044.83,81.35 1051.94,109.52 1070.00,106.52
             1084.72,104.07 1086.12,87.44 1078.79,80.22
             1074.83,76.32 1070.24,75.79 1065.00,76.33 Z
           M 393.06,85.62
           C 385.06,90.45 390.67,99.42 396.94,97.22
             402.65,95.22 402.74,84.26 393.06,85.62 Z
           M 852.04,106.47
           C 843.24,110.17 847.48,121.19 854.98,119.53
             861.77,118.02 862.33,105.98 852.04,106.47 Z
           M 149.02,124.64
           C 139.21,130.01 146.61,139.38 152.96,137.22
             160.05,134.80 158.99,123.56 149.02,124.64 Z
           M 606.00,192.00
           C 608.95,196.01 608.87,204.87 609.58,210.00
             609.58,210.00 615.15,256.00 615.15,256.00
             615.15,256.00 632.85,400.00 632.85,400.00
             632.85,400.00 638.05,443.00 638.05,443.00
             638.46,446.70 639.91,461.39 641.31,463.78
             643.65,467.77 657.25,471.00 662.00,472.69
             662.00,472.69 703.00,486.67 703.00,486.67
             708.16,488.41 719.22,491.74 723.00,495.00
             723.00,495.00 677.00,519.31 677.00,519.31
             677.00,519.31 648.00,534.00 648.00,534.00
             648.00,534.00 654.28,588.00 654.28,588.00
             655.25,595.83 658.01,610.93 656.00,618.00
             651.02,613.65 641.38,595.75 637.56,589.00
             637.56,589.00 631.68,579.58 631.68,579.58
             631.68,579.58 607.00,537.00 607.00,537.00
             607.00,537.00 573.40,594.00 573.40,594.00
             573.40,594.00 555.00,623.00 555.00,623.00
             553.48,617.22 555.37,609.99 555.93,604.00
             555.93,604.00 561.15,558.00 561.15,558.00
             561.15,558.00 562.98,541.00 562.98,541.00
             563.25,538.92 563.86,536.11 562.98,534.21
             561.21,530.91 547.90,525.28 544.00,523.22
             544.00,523.22 509.00,505.25 509.00,505.25
             503.26,502.38 493.29,498.28 489.00,494.00
             489.00,494.00 547.00,474.00 547.00,474.00
             551.18,472.61 567.13,468.01 569.41,465.49
             571.86,462.78 572.73,449.25 573.28,445.00
             573.28,445.00 580.15,390.00 580.15,390.00
             580.15,390.00 596.85,258.00 596.85,258.00
             596.85,258.00 601.85,218.00 601.85,218.00
             602.74,210.52 603.55,198.72 606.00,192.00 Z
           M 250.00,194.60
           C 245.41,195.04 241.72,196.21 238.85,200.10
             232.23,209.12 238.72,221.95 250.00,221.97
             263.69,221.99 266.84,207.64 261.30,200.10
             258.49,196.27 254.50,195.03 250.00,194.60 Z
           M 394.26,197.74
           C 390.38,200.81 393.47,203.99 395.74,203.26
             397.78,202.60 399.24,197.99 394.26,197.74 Z
           M 848.00,232.00
           C 846.80,228.61 846.54,228.53 843.00,229.00
             844.73,231.90 844.63,231.82 848.00,232.00 Z
           M 1097.00,245.54
           C 1086.82,249.23 1091.57,260.15 1098.99,258.53
             1106.39,256.91 1107.03,245.80 1097.00,245.54 Z
           M 98.00,275.00
           C 98.00,275.00 93.00,274.00 93.00,274.00
             93.00,274.00 93.00,278.00 93.00,278.00
             93.00,278.00 98.00,277.00 98.00,277.00
             98.00,277.00 98.00,275.00 98.00,275.00 Z
           M 287.00,325.00
           C 284.10,326.73 284.18,326.63 284.00,330.00
             287.39,328.80 287.47,328.54 287.00,325.00 Z
           M 874.30,344.74
           C 870.34,347.90 874.40,351.00 876.69,349.83
             878.72,348.80 879.30,344.97 874.30,344.74 Z
           M 182.01,368.58
           C 171.87,371.30 176.04,383.28 183.98,381.53
             190.32,380.13 191.59,369.28 182.01,368.58 Z
           M 91.06,434.03
           C 86.87,436.23 88.78,439.37 91.06,439.37
             93.70,439.38 96.23,435.27 91.06,434.03 Z
           M 937.00,433.86
           C 932.31,435.47 934.81,439.37 937.00,439.37
             939.19,439.37 941.69,435.47 937.00,433.86 Z
           M 1126.06,448.64
           C 1118.18,452.93 1120.92,461.33 1126.06,462.53
             1135.39,464.69 1137.77,447.36 1126.06,448.64 Z
           M 268.00,496.00
           C 268.00,496.00 264.00,496.00 264.00,496.00
             264.00,496.00 265.00,501.00 265.00,501.00
             265.00,501.00 267.00,501.00 267.00,501.00
             267.00,501.00 268.00,496.00 268.00,496.00 Z
           M 1018.00,528.33
           C 1012.40,529.72 1008.75,532.20 1007.01,538.00
             1004.22,547.27 1012.28,557.16 1022.00,555.66
             1038.97,553.04 1038.30,526.53 1018.00,528.33 Z
           M 944.96,549.03
           C 939.87,550.27 942.55,554.38 944.96,554.37
             947.14,554.37 949.19,551.27 944.96,549.03 Z
           M 111.00,564.00
           C 115.49,563.22 116.11,561.43 112.00,559.00
             112.00,559.00 111.00,564.00 111.00,564.00 Z
           M 222.08,610.74
           C 219.11,611.87 218.54,614.51 221.30,615.84
             224.21,617.24 227.99,612.45 222.08,610.74 Z
           M 956.01,690.64
           C 946.39,693.85 951.10,704.01 957.98,702.64
             964.00,701.45 965.56,691.46 956.01,690.64 Z
           M 1067.00,708.00
           C 1067.00,708.00 1065.00,708.00 1065.00,708.00
             1065.00,708.00 1064.00,713.00 1064.00,713.00
             1067.39,711.80 1067.47,711.54 1067.00,708.00 Z
           M 139.00,709.39
           C 121.88,714.96 128.33,739.90 147.00,735.61
             157.21,733.26 159.89,719.90 152.47,712.53
             148.57,708.66 144.07,708.70 139.00,709.39 Z
           M 721.04,785.47
           C 712.24,789.17 716.48,800.19 723.98,798.53
             730.62,797.06 731.68,784.96 721.04,785.47 Z
           M 88.28,797.65
           C 84.37,801.01 88.43,803.27 90.57,802.37
             92.59,801.53 93.58,797.16 88.28,797.65 Z
           M 1141.99,807.91
           C 1131.17,809.13 1135.01,821.43 1142.96,819.67
             1148.35,818.47 1150.27,810.31 1141.99,807.91 Z
           M 1085.00,812.39
           C 1080.46,813.12 1076.59,814.27 1073.65,818.10
             1066.22,827.78 1072.43,843.91 1087.00,842.90
             1106.51,841.56 1105.67,812.64 1085.00,812.39 Z
           M 974.09,846.91
           C 969.25,849.71 973.36,853.02 975.69,851.83
             977.78,850.76 978.12,847.77 974.09,846.91 Z
           M 166.00,859.00
           C 171.13,859.69 171.79,856.68 167.00,855.00
             167.00,855.00 166.00,859.00 166.00,859.00 Z
           M 642.27,874.74
           C 638.34,877.77 641.46,880.79 643.81,880.18
             646.22,879.55 647.53,875.00 642.27,874.74 Z
           M 562.00,906.34
           C 544.80,911.36 547.83,934.73 564.00,936.21
             580.86,937.76 586.57,917.13 574.96,908.65
             570.90,905.68 566.74,905.79 562.00,906.34 Z
           M 222.83,948.17
           C 217.80,949.16 219.43,953.19 222.04,953.55
             224.65,953.91 227.20,950.55 222.83,948.17 Z
           M 760.06,950.03
           C 755.87,952.23 757.78,955.37 760.06,955.37
             762.70,955.38 765.23,951.27 760.06,950.03 Z
           M 1081.11,982.60
           C 1072.82,987.86 1079.36,997.57 1086.79,994.26
             1090.89,992.44 1091.63,986.71 1088.35,983.74
             1086.14,981.74 1083.73,982.09 1081.11,982.60 Z
           M 1135.09,999.91
           C 1130.25,1002.71 1134.36,1006.02 1136.69,1004.83
             1138.78,1003.76 1139.12,1000.77 1135.09,999.91 Z
           M 805.18,1005.74
           C 800.82,1008.87 804.37,1011.90 806.75,1011.12
             808.88,1010.41 810.20,1005.98 805.18,1005.74 Z
           M 113.01,1007.68
           C 102.77,1009.51 105.68,1020.79 113.01,1020.79
             121.01,1020.79 122.96,1009.46 113.01,1007.68 Z
           M 525.26,1019.74
           C 521.39,1022.74 524.39,1025.74 526.76,1025.04
             528.89,1024.40 530.15,1019.99 525.26,1019.74 Z
           M 635.00,1042.34
           C 615.52,1047.07 622.47,1071.95 639.00,1069.77
             655.81,1067.57 655.03,1041.02 635.00,1042.34 Z
           M 1031.30,1043.74
           C 1027.34,1046.86 1031.40,1049.65 1033.57,1048.60
             1035.51,1047.66 1036.23,1043.97 1031.30,1043.74 Z
           M 746.91,1081.17
           C 741.75,1082.16 743.45,1086.20 746.04,1086.55
             748.56,1086.90 751.49,1083.56 746.91,1081.17 Z
           M 464.09,1095.03
           C 459.43,1097.43 462.19,1100.89 464.83,1100.56
             467.31,1100.26 469.23,1096.21 464.09,1095.03 Z
           M 1099.00,1115.00
           C 1096.10,1116.73 1096.18,1116.63 1096.00,1120.00
             1099.39,1118.80 1099.47,1118.54 1099.00,1115.00 Z
           M 855.06,1117.81
           C 848.83,1121.41 850.63,1128.50 856.02,1129.67
             863.66,1131.32 866.57,1121.36 860.85,1117.81
             858.74,1116.79 857.24,1117.20 855.06,1117.81 Z
           M 78.04,1143.47
           C 68.68,1147.40 75.12,1156.84 80.96,1155.16
             86.79,1153.47 88.33,1142.98 78.04,1143.47 Z" />
</svg>
